X:49
T:Denis's Hornpipe
R:Hornpipe
C:Pete Mac 2001
O:England
Z:Pete Mac Tunebook 2023 (see https://pghardy.net/tunebooks/).
Z:Creative Commons CC0 (Public Domain) licenced.
M:4/4
L:1/16
Q:1/4=135
K:G
d4|"G"g4 ((3a2g2f2) g4 d4|"C"e3dc3e "G"d8|"Am"c3BA3c "G"B3AG3B|"D7"A3GF3G A4((3d2e2f2)|
"G"g4 ((3a2g2f2) g4d4|"C"e3dc3e "G"d8|"D7"c3BA3c "G"B3AG3B|"D7"A3GF3A "G"G4:|
|:^G4|"A"A4 ((3A2A2A2) A4 A3B|"D"A3GF3E D4 z4|"A"A4 ((3A2A2A2) A4 A3B|"D"A3GF3G "D7"A4 d4|
"G"g4 ((3a2g2f2) g4 d4|"C"e3dc3e "G"d8|"D7"c3BA3G F3E D4|"G"G4 "D7"((3A2G2F2) "G"G4:|

%%vskip 2cm
%%center Waltzes

